X: 31968
T: Peata Geal Mo Mhathair
R: polka
M: 2/4
K: Amajor
cA AB|cd e2|fd ec|df e>d|
cA AB|cd e2|fd ec|de/d/ cB:|
|:AB/A/ GE|FD DF|EF G/F/E|Ac ec|
AB/A/ GE|FD- DF|EF G/F/E|1 A2 AE:|2 A2 AB||

